X: 3666
T:Paddy O'Rafferty (2)
R:Jig
S:Unknown fiddle player (James Cullinane)
D:Clare FM broadcast. From the Miltown Malbay fiddle recital.
Z:Bernie Stocks
M:6/8
L:1/8
K:D
d2B cAF|{G}FEF dAF|d2B cBA|(3Bcd B AFE|!
d2B cAF|{G}FEF dAF|daa caa|B2d AFE||!
c2d ecA|eaf ecA|c2d ecA|BAF AFE|!
c2d ecA|eaf ef^g|a^gf ecA|B2F AFE||!
DFA ded|ded dAF|DFA d2A|B2d AFE|!
DFA ded|ded def|gfe fdA|B2d AFE||!
~F3 D2A,|(3.D.D.D D D3|~F3 DFA|B2d AFE|!
~F3 D2A,|(3.D.D.D D def|gfe fdA|B2d AFE||!
